images/remote-branches-3.svg

<?xml version="1.0" encoding="UTF-8"?>
<svg id="svg13978" version="1.1" viewBox="0 0 663 487" xmlns="http://www.w3.org/2000/svg" xmlns:cc="http://creativecommons.org/ns#" xmlns:dc="http://purl.org/dc/elements/1.1/" xmlns:rdf="http://www.w3.org/1999/02/22-rdf-syntax-ns#">
 <metadata id="metadata13984">
  <rdf:RDF>
   <cc:Work rdf:about="">
    <dc:format>image/svg+xml</dc:format>
    <dc:type rdf:resource="http://purl.org/dc/dcmitype/StillImage"/>
    <dc:title>images/remote-branches-3</dc:title>
   </cc:Work>
  </rdf:RDF>
 </metadata>
 <!-- Generator: Sketch 56.3 (81716) - https://sketch.com -->
 <title id="title13831">images/remote-branches-3</title>
 <desc id="desc13833">Created with Sketch.</desc>
 <g id="03---Remote-Branches-3" fill="none" fill-rule="evenodd">
  <g id="brown" transform="translate(46 109)">
   <rect id="Rectangle-1" width="89" height="33" rx="16.5" fill="#EFEFE7" fill-rule="evenodd"/>
   <text id="C6" fill="#979797" font-family="Source Code Pro" font-size="12px" font-weight="700" text-anchor="middle"><tspan id="tspan13836" x="44.5" y="21" fill="#808080">0b743</tspan></text>
  </g>
  <path id="Line-7" d="m144 125h39v1h-39v4l-9-4.5 9-4.5v4z" fill="#8F8981" fill-rule="nonzero"/>
  <g id="g13847" transform="translate(163 109)">
   <rect id="rect13841" width="89" height="33" rx="16.5" fill="#EFEFE7" fill-rule="evenodd"/>
   <text id="text13845" fill="#979797" font-family="Source Code Pro" font-size="12px" font-weight="700" text-anchor="middle"><tspan id="tspan13843" x="44.5" y="21" fill="#808080">a6b4c</tspan></text>
  </g>
  <path id="Line-8" d="m261 125h39v1h-39v4l-9-4.5 9-4.5v4z" fill="#8F8981" fill-rule="nonzero"/>
  <g id="g13856" transform="translate(280 109)">
   <rect id="rect13850" width="89" height="33" rx="16.5" fill="#EFEFE7" fill-rule="evenodd"/>
   <text id="text13854" fill="#979797" font-family="Source Code Pro" font-size="12px" font-weight="700" text-anchor="middle"><tspan id="tspan13852" x="44.5" y="21" fill="#808080">f4265</tspan></text>
  </g>
  <path id="Line-9" d="m376 125h39v1h-39v4l-9-4.5 9-4.5v4z" fill="#8F8981" fill-rule="nonzero"/>
  <g id="g13865" transform="translate(395 109)">
   <rect id="rect13859" width="89" height="33" rx="16.5" fill="#EFEFE7" fill-rule="evenodd"/>
   <text id="text13863" fill="#979797" font-family="Source Code Pro" font-size="12px" font-weight="700" text-anchor="middle"><tspan id="tspan13861" x="44.5" y="21" fill="#808080">31b8e</tspan></text>
  </g>
  <path id="Line-10" d="m492 125h39v1h-39v4l-9-4.5 9-4.5v4z" fill="#8F8981" fill-rule="nonzero"/>
  <g id="g13874" transform="translate(511 109)">
   <rect id="rect13868" width="89" height="33" rx="16.5" fill="#EFEFE7" fill-rule="evenodd"/>
   <text id="text13872" fill="#979797" font-family="Source Code Pro" font-size="12px" font-weight="700" text-anchor="middle"><tspan id="tspan13870" x="44.5" y="21" fill="#808080">190a3</tspan></text>
  </g>
  <g id="Line-2-+-ref" transform="translate(513 56)">
   <path id="Line-2" d="m42 44v-24h1v24h4l-4.5 9-4.5-9h4z" fill="#8F8981" fill-rule="nonzero"/>
   <g id="ref">
    <rect id="Rectangle-2" width="106" height="33" fill="#F44D27" fill-rule="evenodd"/>
    <text id="master" fill="#979797" font-family="Source Code Pro" font-size="12px" font-weight="700" text-anchor="middle"><tspan id="tspan13878" x="53" y="20" fill="#f0f0f0">master</tspan></text>
   </g>
  </g>
  <g id="g13889" transform="translate(46 295)">
   <rect id="rect13883" width="89" height="33" rx="16.5" fill="#EFEFE7" fill-rule="evenodd"/>
   <text id="text13887" fill="#979797" font-family="Source Code Pro" font-size="12px" font-weight="700" text-anchor="middle"><tspan id="tspan13885" x="44.5" y="21" fill="#808080">0b743</tspan></text>
  </g>
  <path id="Line-5" d="m144 311h39v1h-39v4l-9-4.5 9-4.5v4z" fill="#8F8981" fill-rule="nonzero"/>
  <g id="g13898" transform="translate(163 295)">
   <rect id="rect13892" width="89" height="33" rx="16.5" fill="#EFEFE7" fill-rule="evenodd"/>
   <text id="text13896" fill="#979797" font-family="Source Code Pro" font-size="12px" font-weight="700" text-anchor="middle"><tspan id="tspan13894" x="44.5" y="21" fill="#808080">a6b4c</tspan></text>
  </g>
  <g id="Line-4-+-brown-3" transform="translate(252 295)">
   <path id="Line-4" d="m9 16h39v1h-39v4l-9-4.5 9-4.5v4z" fill="#8F8981" fill-rule="nonzero"/>
   <g id="g13907" transform="translate(28)">
    <rect id="rect13901" width="89" height="33" rx="16.5" fill="#EFEFE7" fill-rule="evenodd"/>
    <text id="text13905" fill="#979797" font-family="Source Code Pro" font-size="12px" font-weight="700" text-anchor="middle"><tspan id="tspan13903" x="44.5" y="21" fill="#808080">f4265</tspan></text>
   </g>
  </g>
  <path id="Line-11" d="m379 311h39v1h-39v4l-9-4.5 9-4.5v4z" fill="#8F8981" fill-rule="nonzero"/>
  <path id="Line-14" d="m370.17 330.79 41.035 36.669-.66633.74566-41.035-36.669-2.6653 2.9826-3.7124-9.3524 9.7094 2.6415-2.6653 2.9826z" fill="#8F8981" fill-rule="nonzero"/>
  <g id="g13918" transform="translate(398 295)">
   <rect id="rect13912" width="89" height="33" rx="16.5" fill="#EFEFE7" fill-rule="evenodd"/>
   <text id="text13916" fill="#979797" font-family="Source Code Pro" font-size="12px" font-weight="700" text-anchor="middle"><tspan id="tspan13914" x="44.5" y="21" fill="#808080">31b8e</tspan></text>
  </g>
  <path id="Line-12" d="m496 311h39v1h-39v4l-9-4.5 9-4.5v4z" fill="#8F8981" fill-rule="nonzero"/>
  <g id="g13927" transform="translate(515 295)">
   <rect id="rect13921" width="89" height="33" rx="16.5" fill="#EFEFE7" fill-rule="evenodd"/>
   <text id="text13925" fill="#979797" font-family="Source Code Pro" font-size="12px" font-weight="700" text-anchor="middle"><tspan id="tspan13923" x="44.5" y="21" fill="#808080">190a3</tspan></text>
  </g>
  <g id="g13935" transform="translate(398 352)">
   <rect id="rect13929" width="89" height="33" rx="16.5" fill="#EFEFE7" fill-rule="evenodd"/>
   <text id="text13933" fill="#979797" font-family="Source Code Pro" font-size="12px" font-weight="700" text-anchor="middle"><tspan id="tspan13931" x="44.5" y="21" fill="#808080">a38de</tspan></text>
  </g>
  <path id="Line-13" d="m496 368h39v1h-39v4l-9-4.5 9-4.5v4z" fill="#8F8981" fill-rule="nonzero"/>
  <g id="g13944" transform="translate(515 352)">
   <rect id="rect13938" width="89" height="33" rx="16.5" fill="#EFEFE7" fill-rule="evenodd"/>
   <text id="text13942" fill="#979797" font-family="Source Code Pro" font-size="12px" font-weight="700" text-anchor="middle"><tspan id="tspan13940" x="44.5" y="21" fill="#808080">893cf</tspan></text>
  </g>
  <g id="Line-3-+-ref-2" transform="translate(516 385)">
   <path id="Line-3" d="m44 9v25h-1v-25h-4l4.5-9 4.5 9h-4z" fill="#8F8981" fill-rule="nonzero"/>
   <g id="g13953" transform="translate(0 20)">
    <rect id="rect13947" width="106" height="33" fill="#F44D27" fill-rule="evenodd"/>
    <text id="text13951" fill="#979797" font-family="Source Code Pro" font-size="12px" font-weight="700" text-anchor="middle"><tspan id="tspan13949" x="53" y="20" fill="#f0f0f0">master</tspan></text>
   </g>
  </g>
  <g id="Line-6-+-ref-3" transform="translate(504 242)">
   <path id="Line-6" d="m54 44v-27h1v27h4l-4.5 9-4.5-9h4z" fill="#8F8981" fill-rule="nonzero"/>
   <g id="ref-3">
    <rect id="rect13957" width="111" height="33" fill="#F44D27"/>
    <text id="text13961" fill="#979797" font-family="Source Code Pro" font-size="12px" font-weight="700" text-anchor="middle"><tspan id="tspan13959" x="55.5" y="20" fill="#f0f0f0">origin/master</tspan></text>
   </g>
  </g>
  <rect id="Rectangle-10" x="18.735" y="17" width="626.45" height="144.97" stroke="#8F8981" stroke-linecap="square"/>
  <rect id="Rectangle-11" x="18.735" y="208" width="626.45" height="262" stroke="#8F8981" stroke-linecap="square"/>
  <text id="My-Computer" transform="translate(18.697)" font-size="12px" font-weight="700" style="fill:#404040;font-family:'Source Code Pro';font-size:12px;font-weight:700;text-anchor:middle"><tspan id="tspan13967" x="313.22549" y="225" style="fill:#404040">My Computer</tspan></text>
  <text id="git.ourcompany.com" transform="translate(18.577)" font-size="12px" font-weight="700" style="fill:#404040;font-family:'Source Code Pro';font-size:12px;font-weight:700;text-anchor:middle"><tspan id="tspan13970" x="313.22549" y="33" style="fill:#404040">git.ourcompany.com</tspan></text>
  <path id="Line" d="m234.5 179.5v-17.068h5v17.068h12l-14.5 29-14.5-29h12z" fill="#8F8981" fill-rule="nonzero"/>
  <text id="git-fetch-origin" transform="translate(13.8,-3)" font-size="12px" font-weight="700" style="fill:#404040;font-family:'Source Code Pro';font-size:12px;font-weight:700;text-anchor:middle"><tspan id="tspan13974" x="313.22549" y="190" style="fill:#404040">git fetch origin</tspan></text>
 </g>
</svg>

<?xml version="1.0"?>
<svg xmlns="http://www.w3.org/2000/svg" xmlns:xlink="http://www.w3.org/1999/xlink" width="663px" height="487px" viewBox="0 0 663 487" version="1.1">
    <!-- Generator: Sketch 56.3 (81716) - https://sketch.com -->
    <title>images/remote-branches-3</title>
    <desc>Created with Sketch.</desc>
    <g id="03---Remote-Branches-3" stroke="none" stroke-width="1" fill="none" fill-rule="evenodd">
        <g id="brown" transform="translate(46.000000, 109.000000)">
            <rect id="Rectangle-1" fill="#EFEFE7" fill-rule="evenodd" x="0" y="0" width="89" height="33" rx="16.5"/>
            <text stroke="none" font-family="Source Code Pro" font-size="12px" font-weight="900" fill="#979797" fill-opacity="1" text-anchor="middle" id="C6">
                <tspan fill="#808080" x="44.5" y="21" fill-opacity="1">0b743</tspan>
            </text>
        </g>
        <path id="Line-7" d="M144,125 L183,125 L183,126 L144,126 L144,130 L135,125.5 L144,121 L144,125 Z" fill="#8F8981" fill-rule="nonzero"/>
        <g id="brown" transform="translate(163.000000, 109.000000)">
            <rect id="Rectangle-1" fill="#EFEFE7" fill-rule="evenodd" x="0" y="0" width="89" height="33" rx="16.5"/>
            <text stroke="none" font-family="Source Code Pro" font-size="12px" font-weight="900" fill="#979797" fill-opacity="1" text-anchor="middle" id="C6">
                <tspan fill="#808080" x="44.5" y="21" fill-opacity="1">a6b4c</tspan>
            </text>
        </g>
        <path id="Line-8" d="M261,125 L300,125 L300,126 L261,126 L261,130 L252,125.5 L261,121 L261,125 Z" fill="#8F8981" fill-rule="nonzero"/>
        <g id="brown" transform="translate(280.000000, 109.000000)">
            <rect id="Rectangle-1" fill="#EFEFE7" fill-rule="evenodd" x="0" y="0" width="89" height="33" rx="16.5"/>
            <text stroke="none" font-family="Source Code Pro" font-size="12px" font-weight="900" fill="#979797" fill-opacity="1" text-anchor="middle" id="C6">
                <tspan fill="#808080" x="44.5" y="21" fill-opacity="1">f4265</tspan>
            </text>
        </g>
        <path id="Line-9" d="M376,125 L415,125 L415,126 L376,126 L376,130 L367,125.5 L376,121 L376,125 Z" fill="#8F8981" fill-rule="nonzero"/>
        <g id="brown" transform="translate(395.000000, 109.000000)">
            <rect id="Rectangle-1" fill="#EFEFE7" fill-rule="evenodd" x="0" y="0" width="89" height="33" rx="16.5"/>
            <text stroke="none" font-family="Source Code Pro" font-size="12px" font-weight="900" fill="#979797" fill-opacity="1" text-anchor="middle" id="C6">
                <tspan fill="#808080" x="44.5" y="21" fill-opacity="1">31b8e</tspan>
            </text>
        </g>
        <path id="Line-10" d="M492,125 L531,125 L531,126 L492,126 L492,130 L483,125.5 L492,121 L492,125 Z" fill="#8F8981" fill-rule="nonzero"/>
        <g id="brown" transform="translate(511.000000, 109.000000)">
            <rect id="Rectangle-1" fill="#EFEFE7" fill-rule="evenodd" x="0" y="0" width="89" height="33" rx="16.5"/>
            <text stroke="none" font-family="Source Code Pro" font-size="12px" font-weight="900" fill="#979797" fill-opacity="1" text-anchor="middle" id="C6">
                <tspan fill="#808080" x="44.5" y="21" fill-opacity="1">190a3</tspan>
            </text>
        </g>
        <g id="Line-2-+-ref" transform="translate(513.000000, 56.000000)">
            <path id="Line-2" d="M42,44 L42,20 L43,20 L43,44 L47,44 L42.5,53 L38,44 L42,44 Z" fill="#8F8981" fill-rule="nonzero"/>
            <g id="ref">
                <rect id="Rectangle-2" fill="#F44D27" fill-rule="evenodd" x="0" y="0" width="106" height="33"/>
                <text stroke="none" font-family="Source Code Pro" font-size="12px" font-weight="900" fill="#979797" fill-opacity="1" text-anchor="middle" id="master">
                    <tspan fill="#f0f0f0" x="53" y="20" fill-opacity="1">master</tspan>
                </text>
            </g>
        </g>
        <g id="brown" transform="translate(46.000000, 295.000000)">
            <rect id="Rectangle-1" fill="#EFEFE7" fill-rule="evenodd" x="0" y="0" width="89" height="33" rx="16.5"/>
            <text stroke="none" font-family="Source Code Pro" font-size="12px" font-weight="900" fill="#979797" fill-opacity="1" text-anchor="middle" id="C6">
                <tspan fill="#808080" x="44.5" y="21" fill-opacity="1">0b743</tspan>
            </text>
        </g>
        <path id="Line-5" d="M144,311 L183,311 L183,312 L144,312 L144,316 L135,311.5 L144,307 L144,311 Z" fill="#8F8981" fill-rule="nonzero"/>
        <g id="brown" transform="translate(163.000000, 295.000000)">
            <rect id="Rectangle-1" fill="#EFEFE7" fill-rule="evenodd" x="0" y="0" width="89" height="33" rx="16.5"/>
            <text stroke="none" font-family="Source Code Pro" font-size="12px" font-weight="900" fill="#979797" fill-opacity="1" text-anchor="middle" id="C6">
                <tspan fill="#808080" x="44.5" y="21" fill-opacity="1">a6b4c</tspan>
            </text>
        </g>
        <g id="Line-4-+-brown-3" transform="translate(252.000000, 295.000000)">
            <path id="Line-4" d="M9,16 L48,16 L48,17 L9,17 L9,21 L0,16.5 L9,12 L9,16 Z" fill="#8F8981" fill-rule="nonzero"/>
            <g id="brown" transform="translate(28.000000, 0.000000)">
                <rect id="Rectangle-1" fill="#EFEFE7" fill-rule="evenodd" x="0" y="0" width="89" height="33" rx="16.5"/>
                <text stroke="none" font-family="Source Code Pro" font-size="12px" font-weight="900" fill="#979797" fill-opacity="1" text-anchor="middle" id="C6">
                    <tspan fill="#808080" x="44.5" y="21" fill-opacity="1">f4265</tspan>
                </text>
            </g>
        </g>
        <path id="Line-11" d="M379,311 L418,311 L418,312 L379,312 L379,316 L370,311.5 L379,307 L379,311 Z" fill="#8F8981" fill-rule="nonzero"/>
        <path id="Line-14" d="M370.171242,330.790985 L411.205994,367.460337 L410.539663,368.205994 L369.504911,331.536641 L366.839587,334.519266 L363.127172,325.166835 L372.836566,327.808361 L370.171242,330.790985 Z" fill="#8F8981" fill-rule="nonzero"/>
        <g id="brown" transform="translate(398.000000, 295.000000)">
            <rect id="Rectangle-1" fill="#EFEFE7" fill-rule="evenodd" x="0" y="0" width="89" height="33" rx="16.5"/>
            <text stroke="none" font-family="Source Code Pro" font-size="12px" font-weight="900" fill="#979797" fill-opacity="1" text-anchor="middle" id="C6">
                <tspan fill="#808080" x="44.5" y="21" fill-opacity="1">31b8e</tspan>
            </text>
        </g>
        <path id="Line-12" d="M496,311 L535,311 L535,312 L496,312 L496,316 L487,311.5 L496,307 L496,311 Z" fill="#8F8981" fill-rule="nonzero"/>
        <g id="brown" transform="translate(515.000000, 295.000000)">
            <rect id="Rectangle-1" fill="#EFEFE7" fill-rule="evenodd" x="0" y="0" width="89" height="33" rx="16.5"/>
            <text stroke="none" font-family="Source Code Pro" font-size="12px" font-weight="900" fill="#979797" fill-opacity="1" text-anchor="middle" id="C6">
                <tspan fill="#808080" x="44.5" y="21" fill-opacity="1">190a3</tspan>
            </text>
        </g>
        <g id="brown" transform="translate(398.000000, 352.000000)">
            <rect id="Rectangle-1" fill="#EFEFE7" fill-rule="evenodd" x="0" y="0" width="89" height="33" rx="16.5"/>
            <text stroke="none" font-family="Source Code Pro" font-size="12px" font-weight="900" fill="#979797" fill-opacity="1" text-anchor="middle" id="C6">
                <tspan fill="#808080" x="44.5" y="21" fill-opacity="1">a38de</tspan>
            </text>
        </g>
        <path id="Line-13" d="M496,368 L535,368 L535,369 L496,369 L496,373 L487,368.5 L496,364 L496,368 Z" fill="#8F8981" fill-rule="nonzero"/>
        <g id="brown" transform="translate(515.000000, 352.000000)">
            <rect id="Rectangle-1" fill="#EFEFE7" fill-rule="evenodd" x="0" y="0" width="89" height="33" rx="16.5"/>
            <text stroke="none" font-family="Source Code Pro" font-size="12px" font-weight="900" fill="#979797" fill-opacity="1" text-anchor="middle" id="C6">
                <tspan fill="#808080" x="44.5" y="21" fill-opacity="1">893cf</tspan>
            </text>
        </g>
        <g id="Line-3-+-ref-2" transform="translate(516.000000, 385.000000)">
            <path id="Line-3" d="M44,9 L44,34 L43,34 L43,9 L39,9 L43.5,0 L48,9 L44,9 Z" fill="#8F8981" fill-rule="nonzero"/>
            <g id="ref" transform="translate(0.000000, 20.000000)">
                <rect id="Rectangle-2" fill="#F44D27" fill-rule="evenodd" x="0" y="0" width="106" height="33"/>
                <text stroke="none" font-family="Source Code Pro" font-size="12px" font-weight="900" fill="#979797" fill-opacity="1" text-anchor="middle" id="master">
                    <tspan fill="#f0f0f0" x="53" y="20" fill-opacity="1">master</tspan>
                </text>
            </g>
        </g>
        <g id="Line-6-+-ref-3" transform="translate(504.000000, 242.000000)">
            <path id="Line-6" d="M54,44 L54,17 L55,17 L55,44 L59,44 L54.5,53 L50,44 L54,44 Z" fill="#8F8981" fill-rule="nonzero"/>
            <g id="ref-3">
                <rect id="Rectangle-2" fill="#F44D27" x="0" y="0" width="111" height="33"/>
                <text stroke="none" font-family="Source Code Pro" font-size="12px" font-weight="900" fill="#979797" fill-opacity="1" text-anchor="middle" id="master">
                    <tspan fill="#f0f0f0" x="55.5" y="20" fill-opacity="1">origin/master</tspan>
                </text>
            </g>
        </g>
        <rect id="Rectangle-10" stroke="#8F8981" stroke-linecap="square" x="18.7349823" y="17" width="626.450972" height="144.96875"/>
        <rect id="Rectangle-11" stroke="#8F8981" stroke-linecap="square" x="18.7349823" y="208" width="626.450972" height="262"/>
        <text stroke="none" font-family="Source Code Pro" font-size="12px" font-weight="900" fill="#979797" fill-opacity="1" text-anchor="middle" id="My-Computer">
            <tspan fill="#f0f0f0" x="313.225486" y="225" fill-opacity="1">My Computer</tspan>
        </text>
        <text stroke="none" font-family="Source Code Pro" font-size="12px" font-weight="900" fill="#979797" fill-opacity="1" text-anchor="middle" id="git.ourcompany.com">
            <tspan fill="#f0f0f0" x="313.225486" y="33" fill-opacity="1">git.ourcompany.com</tspan>
        </text>
        <path id="Line" d="M234.5,179.5 L234.5,162.432432 L239.5,162.432432 L239.5,179.5 L251.5,179.5 L237,208.5 L222.5,179.5 L234.5,179.5 Z" fill="#8F8981" fill-rule="nonzero"/>
        <text stroke="none" font-family="Source Code Pro" font-size="12px" font-weight="900" fill="#979797" fill-opacity="1" text-anchor="middle" id="git-fetch-origin">
            <tspan fill="#f0f0f0" x="313.225486" y="190" fill-opacity="1">git fetch origin</tspan>
        </text>
    </g>
</svg>
